src/lib/packages/icons/src/assets/line/taco.svg

<svg width="24" height="24" viewBox="0 0 24 24" fill="none" xmlns="http://www.w3.org/2000/svg">
<path d="M20.68 13.77C21.23 13.19 21.71 12.68 21.75 12.09C21.79 11.32 21.38 10.69 21.03 10.13C20.84 9.82998 20.66 9.54998 20.59 9.31998C20.52 9.07998 20.51 8.75999 20.49 8.41999C20.46 7.70999 20.42 6.89996 19.87 6.32996C19.37 5.78996 18.67 5.62997 18.05 5.48997C17.7 5.40997 17.37 5.33997 17.15 5.20997C16.95 5.08997 16.73 4.82997 16.5 4.55997C16.09 4.06997 15.62 3.51998 14.88 3.31998C14.22 3.14998 13.58 3.38997 13.01 3.58997C12.64 3.71997 12.29 3.84998 12.01 3.84998C11.73 3.84998 11.38 3.71997 11.01 3.58997C10.44 3.38997 9.80001 3.15998 9.12001 3.31998C8.40001 3.51998 7.93 4.06997 7.52 4.55997C7.29 4.82997 7.07 5.08997 6.86 5.20997C6.65 5.33997 6.32001 5.40997 5.97001 5.48997C5.35001 5.62997 4.65002 5.78998 4.16002 6.31998C3.60002 6.89998 3.56001 7.70999 3.53001 8.41999C3.51001 8.75999 3.5 9.08998 3.43 9.31998C3.36 9.55998 3.18002 9.83999 2.98002 10.14C2.62002 10.7 2.21002 11.33 2.26002 12.11C2.30002 12.7 2.78 13.2 3.33 13.78C3.39 13.85 3.45 13.92 3.52 13.98C2.97 15.63 2.77 17.26 2.71 18.37C2.67 19 2.91002 19.63 3.35002 20.08C3.79002 20.53 4.41002 20.77 5.04002 20.75C10.19 20.56 13.84 20.56 18.99 20.75C19.02 20.75 19.04 20.75 19.07 20.75C19.67 20.75 20.25 20.51 20.68 20.08C21.12 19.63 21.36 19 21.32 18.37C21.26 17.26 21.06 15.63 20.51 13.98C20.57 13.91 20.64 13.84 20.7 13.78L20.68 13.77ZM3.75001 12C3.73001 11.72 3.99 11.32 4.24 10.94C4.48 10.57 4.73 10.18 4.86 9.72999C4.98 9.31999 5 8.88998 5.02 8.46998C5.04 8.02998 5.06 7.51997 5.24 7.33997C5.43 7.13997 5.86001 7.03999 6.28001 6.94999C6.73001 6.84999 7.2 6.73997 7.61 6.48997C8.03 6.23997 8.34003 5.86996 8.64003 5.51996C8.92003 5.17996 9.22002 4.83999 9.48002 4.75999C9.70002 4.70999 10.09 4.84997 10.48 4.98997C10.93 5.14997 11.44 5.33997 11.99 5.33997C12.54 5.33997 13.05 5.15997 13.5 4.98997C13.88 4.84997 14.28 4.70999 14.48 4.75999C14.76 4.83999 15.04 5.16996 15.34 5.51996C15.64 5.86996 15.95 6.23999 16.36 6.47999C16.78 6.73999 17.25 6.83998 17.7 6.93998C18.12 7.03998 18.56 7.12998 18.76 7.34998C18.93 7.51998 18.95 8.02998 18.97 8.46998C18.99 8.88998 19.01 9.31999 19.13 9.72999C19.26 10.17 19.51 10.56 19.75 10.93C20 11.31 20.25 11.71 20.25 11.93C20.21 12.03 20.04 12.24 19.85 12.44C18.59 9.89998 16.28 7.66999 11.99 7.66999C7.7 7.66999 5.38002 9.89998 4.13002 12.44C3.95002 12.24 3.77001 12.05 3.75001 12ZM19.59 19.02C19.44 19.17 19.24 19.26 19.03 19.24C13.84 19.05 10.16 19.05 4.98002 19.24C4.76002 19.24 4.57002 19.17 4.42002 19.02C4.27002 18.87 4.19002 18.66 4.20002 18.44C4.27002 17.18 4.48001 15.61 5.03001 14.13C5.05001 14.1 5.05001 14.07 5.06001 14.03C6.03001 11.46 8.01001 9.15998 12 9.15998C15.99 9.15998 17.98 11.47 18.95 14.04C18.96 14.07 18.96 14.09 18.98 14.12C19.53 15.61 19.74 17.18 19.81 18.43C19.82 18.65 19.75 18.85 19.59 19.01V19.02ZM8.02 16C8.02 16.55 7.57 17 7.02 17C6.47 17 6.02 16.55 6.02 16C6.02 15.45 6.46 15 7.02 15C7.57 15 8.02 15.45 8.02 16ZM12.02 16C12.02 16.55 11.57 17 11.02 17C10.47 17 10.02 16.55 10.02 16C10.02 15.45 10.46 15 11.02 15C11.57 15 12.02 15.45 12.02 16ZM10.02 13C10.02 13.55 9.57 14 9.02 14C8.47 14 8.02 13.55 8.02 13C8.02 12.45 8.46 12 9.02 12C9.57 12 10.02 12.45 10.02 13Z" fill="currentColor"/>
</svg>

<svg xmlns="http://www.w3.org/2000/svg" width="24" height="24" fill="none"><path fill="currentColor" d="M20.68 13.77c.55-.58 1.03-1.09 1.07-1.68.04-.77-.37-1.4-.72-1.96-.19-.3-.37-.58-.44-.81-.07-.24-.08-.56-.1-.9-.03-.71-.07-1.52-.62-2.09-.5-.54-1.2-.7-1.82-.84-.35-.08-.68-.15-.9-.28-.2-.12-.42-.38-.65-.65-.41-.49-.88-1.04-1.62-1.24-.66-.17-1.3.07-1.87.27-.37.13-.72.26-1 .26s-.63-.13-1-.26c-.57-.2-1.21-.43-1.89-.27-.72.2-1.19.75-1.6 1.24-.23.27-.45.53-.66.65-.21.13-.54.2-.89.28-.62.14-1.32.3-1.81.83-.56.58-.6 1.39-.63 2.1-.02.34-.03.67-.1.9-.07.24-.25.52-.45.82-.36.56-.77 1.19-.72 1.97.04.59.52 1.09 1.07 1.67.06.07.12.14.19.2-.55 1.65-.75 3.28-.81 4.39-.04.63.2 1.26.64 1.71.44.45 1.06.69 1.69.67 5.15-.19 8.8-.19 13.95 0h.08c.6 0 1.18-.24 1.61-.67.44-.45.68-1.08.64-1.71-.06-1.11-.26-2.74-.81-4.39.06-.07.13-.14.19-.2l-.02-.01ZM3.75 12c-.02-.28.24-.68.49-1.06.24-.37.49-.76.62-1.21.12-.41.14-.84.16-1.26.02-.44.04-.95.22-1.13.19-.2.62-.3 1.04-.39.45-.1.92-.21 1.33-.46.42-.25.73-.62 1.03-.97.28-.34.58-.68.84-.76.22-.05.61.09 1 .23.45.16.96.35 1.51.35s1.06-.18 1.51-.35c.38-.14.78-.28.98-.23.28.08.56.41.86.76.3.35.61.72 1.02.96.42.26.89.36 1.34.46.42.1.86.19 1.06.41.17.17.19.68.21 1.12.02.42.04.85.16 1.26.13.44.38.83.62 1.2.25.38.5.78.5 1-.04.1-.21.31-.4.51-1.26-2.54-3.57-4.77-7.86-4.77-4.29 0-6.61 2.23-7.86 4.77-.18-.2-.36-.39-.38-.44Zm15.84 7.02c-.15.15-.35.24-.56.22-5.19-.19-8.87-.19-14.05 0-.22 0-.41-.07-.56-.22a.768.768 0 0 1-.22-.58c.07-1.26.28-2.83.83-4.31.02-.03.02-.06.03-.1.97-2.57 2.95-4.87 6.94-4.87s5.98 2.31 6.95 4.88c.01.03.01.05.03.08.55 1.49.76 3.06.83 4.31.01.22-.06.42-.22.58v.01ZM8.02 16c0 .55-.45 1-1 1s-1-.45-1-1 .44-1 1-1c.55 0 1 .45 1 1Zm4 0c0 .55-.45 1-1 1s-1-.45-1-1 .44-1 1-1c.55 0 1 .45 1 1Zm-2-3c0 .55-.45 1-1 1s-1-.45-1-1 .44-1 1-1c.55 0 1 .45 1 1Z"/></svg>
